archdroid-icon-theme/Archdroid-Grey/apps/scalable/libreoffice-writer.svg

<svg fill="#9E9E9E" height="48" viewBox="0 0 48 48" width="48" xmlns="http://www.w3.org/2000/svg"><path d="m28 4h-16c-2.21 0-3.98 1.79-3.98 4l-.02 32c0 2.21 1.77 4 3.98 4h24.02c2.21 0 4-1.79 4-4v-24zm4 32h-16v-4h16zm0-8h-16v-4h16zm-6-10v-11l11 11z" fill="#0369a3"/></svg>

<svg fill="#9E9E9E" height="48" version="1.1" viewBox="0 0 48 48" width="48" xmlns="http://www.w3.org/2000/svg"><g fill="#0369a3"><path d="M28 4L12 4C9.79 4 8.02 5.79 8.02 8L8 40c0 2.21 1.77 4 3.98 4L36 44c2.21 0 4-1.79 4-4L40 16 28 4Zm4 32l-16 0 0-4 16 0 0 4zm0-8l-16 0 0-4 16 0 0 4zM26 18L26 7 37 18 26 18Z" fill="#0369a3"/></g></svg>
